public/img/events/appreciation.svg

<svg width="200" height="200" viewBox="0 0 200 200" fill="none" xmlns="http://www.w3.org/2000/svg">
<g clip-path="url(#clip0_501_31086)">
<path fill-rule="evenodd" clip-rule="evenodd" d="M100.001 23.7448C56.4703 23.7448 21.2213 57.8126 21.2213 99.7894C21.2213 141.766 56.4703 175.834 100.001 175.834C143.532 175.834 178.781 141.766 178.781 99.7894C178.781 57.8126 143.532 23.7448 100.001 23.7448ZM19.2344 99.7894C19.2344 56.6852 55.4169 21.7811 100.001 21.7811C144.585 21.7811 180.768 56.6852 180.768 99.7894C180.768 142.894 144.585 177.798 100.001 177.798C55.4169 177.798 19.2344 142.894 19.2344 99.7894Z" fill="black"/>
<path fill-rule="evenodd" clip-rule="evenodd" d="M100.136 67.7564C82.2361 67.7564 67.7252 82.098 67.7252 99.7893C67.7252 117.481 82.2361 131.822 100.136 131.822C118.036 131.822 132.547 117.481 132.547 99.7893C132.547 82.098 118.036 67.7564 100.136 67.7564ZM65.7383 99.7893C65.7383 81.0135 81.1387 65.7927 100.136 65.7927C119.134 65.7927 134.534 81.0135 134.534 99.7893C134.534 118.565 119.134 133.786 100.136 133.786C81.1387 133.786 65.7383 118.565 65.7383 99.7893Z" fill="black"/>
<path d="M98.5721 0.867666C96.317 8.91395 90.9226 15.7624 89.1393 23.9707C87.1475 33.1461 90.7984 42.0515 94.2506 50.4022C96.2027 55.12 98.135 59.9752 98.6267 65.0907C98.6913 65.7485 99.1532 66.318 99.8685 66.318C100.489 66.318 101.175 65.7534 101.11 65.0907C100.226 55.9054 95.2838 47.8837 92.6611 39.1698C91.3994 34.9822 90.6295 30.5589 91.2504 26.1897C91.8365 22.0659 93.5651 18.1925 95.3881 14.4712C97.4545 10.2444 99.6996 6.06167 100.971 1.51568C101.393 -0.00618764 98.9943 -0.654207 98.5721 0.867666Z" fill="black"/>
<path d="M98.761 1.58933C100.589 9.66017 105.829 16.4153 108.084 24.334C110.618 33.2197 107.165 42.2577 103.773 50.4267C101.821 55.1347 99.8786 59.9016 99.1633 64.9729C99.0689 65.6307 99.3223 66.2886 100.033 66.4849C100.614 66.642 101.468 66.2886 101.562 65.6258C102.859 56.4553 108.015 48.3992 110.27 39.4791C111.398 35.0116 111.845 30.3675 110.99 25.8166C110.2 21.6142 108.288 17.6721 106.405 13.8576C104.339 9.67489 102.193 5.50693 101.16 0.936402C100.807 -0.605108 98.4133 0.0478253 98.761 1.58933Z" fill="black"/>
<path d="M99.4117 134.346C97.1566 142.392 91.7622 149.24 89.9789 157.449C87.9871 166.624 91.638 175.53 95.0902 183.88C97.0423 188.598 98.9746 193.453 99.4663 198.569C99.5309 199.227 99.9928 199.796 100.708 199.796C101.329 199.796 102.014 199.231 101.95 198.569C101.066 189.383 96.1234 181.362 93.5007 172.648C92.239 168.46 91.4691 164.037 92.09 159.668C92.6761 155.544 94.4047 151.67 96.2277 147.949C98.2941 143.722 100.539 139.54 101.811 134.994C102.233 133.472 99.8389 132.824 99.4117 134.346Z" fill="black"/>
<path d="M99.6057 135.067C101.434 143.138 106.674 149.893 108.929 157.812C111.462 166.698 108.01 175.736 104.618 183.905C102.665 188.613 100.723 193.38 100.008 198.451C99.9136 199.109 100.167 199.767 100.877 199.963C101.458 200.12 102.313 199.767 102.407 199.104C103.704 189.933 108.86 181.877 111.115 172.957C112.242 168.49 112.689 163.845 111.835 159.295C111.045 155.092 109.133 151.15 107.25 147.336C105.184 143.153 103.038 138.985 102.005 134.414C101.647 132.873 99.253 133.526 99.6057 135.067Z" fill="black"/>
<path d="M133.57 101.341C141.711 103.57 148.64 108.901 156.946 110.663C166.229 112.632 175.24 109.024 183.689 105.612C188.462 103.682 193.375 101.773 198.551 101.287C199.216 101.223 199.793 100.766 199.793 100.059C199.793 99.4457 199.221 98.7682 198.551 98.8321C189.257 99.7059 181.141 104.591 172.324 107.183C168.087 108.43 163.611 109.191 159.191 108.577C155.018 107.998 151.099 106.289 147.334 104.488C143.057 102.445 138.825 100.226 134.226 98.9695C132.691 98.5473 132.03 100.918 133.57 101.341Z" fill="black"/>
<path d="M134.301 101.149C142.467 99.3426 149.302 94.1633 157.314 91.9345C166.305 89.4308 175.449 92.8428 183.715 96.1958C188.478 98.1251 193.302 100.045 198.433 100.752C199.098 100.845 199.764 100.594 199.963 99.8925C200.122 99.3181 199.764 98.4737 199.093 98.3804C189.815 97.0991 181.663 92.0033 172.638 89.7745C168.118 88.6601 163.419 88.2182 158.814 89.0626C154.562 89.8432 150.574 91.7333 146.714 93.5939C142.482 95.6361 138.265 97.7569 133.64 98.7781C132.081 99.1315 132.741 101.498 134.301 101.149Z" fill="black"/>
<path d="M66.4298 98.6455C58.2886 96.4167 51.3593 91.0852 43.0541 89.3228C33.7704 87.3542 24.7599 90.9625 16.3107 94.3744C11.5372 96.3038 6.62466 98.2135 1.44883 98.6995C0.783227 98.7633 0.207031 99.2199 0.207031 99.9268C0.207031 100.54 0.77826 101.218 1.44883 101.154C10.7425 100.28 18.8589 95.3956 27.6757 92.8035C31.9127 91.5565 36.3882 90.7956 40.809 91.4093C44.9814 91.9885 48.9006 93.697 52.6657 95.4987C56.9425 97.5409 61.1745 99.7599 65.7742 101.017C67.314 101.434 67.9697 99.0628 66.4298 98.6455Z" fill="black"/>
<path d="M65.699 98.8321C57.5329 100.639 50.698 105.818 42.6859 108.047C33.6952 110.551 24.5506 107.139 16.2852 103.786C11.5216 101.856 6.69848 99.9367 1.56736 99.2297C0.901753 99.1365 0.236147 99.3868 0.0374584 100.089C-0.121492 100.663 0.236147 101.508 0.90672 101.601C10.1855 102.882 18.3366 107.978 27.3621 110.207C31.8822 111.321 36.5812 111.763 41.1858 110.919C45.4377 110.138 49.4264 108.248 53.2859 106.387C57.518 104.345 61.7351 102.224 66.3596 101.203C67.9193 100.855 67.2587 98.4884 65.699 98.8321Z" fill="black"/>
<path d="M86.2094 91.6351C87.7492 93.3288 89.8653 94.5414 92.1253 95.0078C92.7611 95.1403 93.4963 94.8261 93.6552 94.1486C93.7993 93.535 93.4665 92.779 92.786 92.6366C92.2942 92.5335 91.8074 92.396 91.3356 92.2242C91.266 92.1997 91.2014 92.1751 91.1319 92.1457C90.9829 92.0868 91.1269 92.1358 91.1915 92.1702C91.0822 92.1064 90.9531 92.0671 90.8388 92.0131C90.6054 91.9051 90.3769 91.7824 90.1534 91.6547C89.9398 91.532 89.7361 91.4044 89.5325 91.2718C89.4232 91.1982 89.3189 91.1245 89.2146 91.0509C89.1848 91.0313 89.0308 90.9134 89.1699 91.0165C89.3189 91.1343 89.1252 90.9772 89.0904 90.9527C88.688 90.6287 88.3155 90.2752 87.9678 89.8923C87.5307 89.4112 86.6465 89.421 86.2094 89.8923C85.7325 90.4127 85.7425 91.1245 86.2094 91.6351Z" fill="black"/>
<path d="M111.486 89.799C111.149 90.1672 110.786 90.5158 110.399 90.83C110.344 90.8741 110.289 90.9282 110.23 90.9625C110.294 90.9282 110.404 90.8349 110.274 90.9282C110.17 91.0018 110.066 91.0803 109.957 91.1491C109.743 91.2914 109.524 91.4289 109.301 91.5565C109.087 91.6793 108.874 91.7922 108.65 91.8953C108.536 91.9493 108.417 92.0033 108.297 92.0573C108.144 92.126 108.516 91.9738 108.357 92.0327C108.288 92.0573 108.223 92.0867 108.158 92.1113C107.672 92.2929 107.175 92.4353 106.668 92.5384C106.032 92.6709 105.605 93.4466 105.799 94.0505C106.018 94.7132 106.643 95.047 107.329 94.9096C109.584 94.4432 111.7 93.2306 113.245 91.5369C113.677 91.0607 113.756 90.2654 113.245 89.799C112.773 89.367 111.953 89.2885 111.486 89.799Z" fill="black"/>
<path fill-rule="evenodd" clip-rule="evenodd" d="M98.7276 119.894C98.6251 119.831 98.4894 119.793 98.3654 119.795C98.0309 119.798 97.6765 119.946 97.1758 120.184C96.2364 120.631 95.2922 121.078 94.3488 121.524L93.7051 120.196C94.649 119.749 95.592 119.303 96.53 118.856L96.5313 118.856C96.5383 118.852 96.5453 118.849 96.5524 118.846C97.0041 118.632 97.644 118.329 98.3513 118.322C99.0846 118.315 100.076 118.734 100.31 119.696L98.8608 120.04C98.8543 120.014 98.8277 119.956 98.7276 119.894Z" fill="black"/>
<path fill-rule="evenodd" clip-rule="evenodd" d="M100.078 119.696C100.312 118.734 101.303 118.315 102.036 118.322C102.744 118.329 103.384 118.632 103.835 118.846C103.842 118.849 103.849 118.852 103.856 118.856L103.858 118.856C104.796 119.303 105.739 119.749 106.683 120.196L106.039 121.524C105.096 121.078 104.151 120.631 103.212 120.184C102.711 119.946 102.357 119.798 102.022 119.795C101.898 119.793 101.763 119.831 101.66 119.894C101.56 119.956 101.533 120.014 101.527 120.04L100.078 119.696Z" fill="black"/>
<path fill-rule="evenodd" clip-rule="evenodd" d="M97.4365 122.755C95.9278 122.482 94.1285 122.156 92.7266 121.065L93.6483 119.908C94.7158 120.739 96.1386 121.023 97.7164 121.309C98.1025 121.377 98.482 121.446 98.8609 121.514C99.3076 121.595 99.7534 121.675 100.208 121.755L99.9459 123.205C99.496 123.126 99.0402 123.043 98.5867 122.962C98.2051 122.893 97.8251 122.824 97.4516 122.758L97.4491 122.758L97.4491 122.758L97.4365 122.755Z" fill="black"/>
<path fill-rule="evenodd" clip-rule="evenodd" d="M102.497 121.309C104.075 121.023 105.498 120.739 106.566 119.908L107.487 121.065C106.085 122.156 104.286 122.482 102.777 122.755L102.762 122.758C102.389 122.824 102.009 122.893 101.627 122.962C101.174 123.043 100.718 123.126 100.268 123.205L100.006 121.755C100.46 121.675 100.906 121.595 101.353 121.514C101.732 121.446 102.111 121.377 102.497 121.309Z" fill="black"/>
<path fill-rule="evenodd" clip-rule="evenodd" d="M90.1245 89.7685C88.7676 89.3711 87.2842 89.512 85.682 89.6912L85.681 89.6913C84.9261 89.7748 84.1724 89.8582 83.4186 89.9417C82.6648 90.0252 81.911 90.1086 81.1559 90.1921L80.9902 88.7284C81.7452 88.645 82.4989 88.5615 83.2527 88.4781L83.2535 88.478C84.0068 88.3946 84.7602 88.3112 85.5148 88.2277C87.0714 88.0536 88.856 87.8607 90.5486 88.3566L90.5498 88.3569C91.4744 88.6294 92.2905 89.0829 93.0363 89.57C93.4095 89.8138 93.7724 90.071 94.1232 90.3213C94.1603 90.3478 94.1973 90.3742 94.2341 90.4005C94.5489 90.6254 94.8538 90.8432 95.1625 91.0512L95.165 91.0529C96.5529 91.9962 98.0275 92.647 99.3946 92.376L99.6877 93.82C97.6875 94.2166 95.7651 93.248 94.3218 92.2672C93.9956 92.0473 93.674 91.8176 93.3618 91.5946C93.3247 91.5681 93.2876 91.5416 93.2508 91.5153C92.8999 91.2649 92.5594 91.0238 92.2147 90.7987C91.5252 90.3483 90.8489 89.982 90.1245 89.7685Z" fill="black"/>
<path fill-rule="evenodd" clip-rule="evenodd" d="M110.123 88.3566C111.816 87.8607 113.601 88.0536 115.157 88.2277C115.912 88.3112 116.666 88.3946 117.419 88.4781L117.422 88.4784C118.175 88.5617 118.928 88.6451 119.682 88.7284L119.516 90.1921C118.763 90.1088 118.01 90.0255 117.258 89.9422L117.253 89.9417C116.5 89.8582 115.746 89.7748 114.991 89.6913L114.99 89.6912C113.388 89.512 111.904 89.3711 110.548 89.7685C109.823 89.982 109.147 90.3483 108.457 90.7987C108.113 91.0238 107.772 91.2649 107.421 91.5153C107.384 91.5416 107.347 91.5681 107.31 91.5946C106.998 91.8176 106.676 92.0473 106.35 92.2672C104.907 93.248 102.985 94.2166 100.984 93.82L101.277 92.376C102.644 92.647 104.119 91.9962 105.507 91.0529L105.51 91.0512L105.51 91.0512C105.818 90.8432 106.123 90.6254 106.438 90.4005C106.475 90.3742 106.512 90.3478 106.549 90.3213C106.9 90.071 107.263 89.8138 107.636 89.57C108.382 89.0829 109.198 88.6294 110.122 88.3569L110.123 88.3566Z" fill="black"/>
<path d="M92.9496 43.2838C84.0782 44.6485 76.0214 50.1371 71.3373 57.6777C70.1353 59.612 69.2163 61.6788 68.4464 63.8143C67.6914 65.9007 67.0258 68.0461 65.8337 69.9411C64.5968 71.9048 62.754 73.1419 60.5585 73.8832C58.0352 74.7374 55.3082 75.3118 52.6507 75.5033C50.1174 75.6898 47.4848 75.4935 45.1453 74.438C43.2229 73.5739 41.5341 72.2533 40.2228 70.6235C37.4759 67.2164 36.8053 62.6999 38.2309 58.6056C39.6615 54.4867 43.1484 51.443 47.4649 50.5691C51.5529 49.7444 55.8446 51.2073 58.1295 54.742C60.1661 57.8839 60.4492 62.1992 57.762 65.0613C55.2336 67.7564 51.0413 68.7481 47.8474 66.75C46.8142 66.102 45.94 65.2429 45.0906 64.3789C43.973 63.2448 42.2196 64.9827 43.3322 66.1167C45.1055 67.9184 47.1321 69.6367 49.7151 70.1031C51.9454 70.5056 54.1955 70.1325 56.237 69.1752C58.1991 68.2572 59.9277 66.7108 60.9807 64.8256C62.1232 62.7834 62.4212 60.4318 62.0685 58.1441C61.3532 53.5048 57.7818 49.5234 53.1872 48.3207C48.3541 47.059 42.9199 48.6349 39.428 52.1401C35.8466 55.7336 34.277 61.0995 35.33 66.0333C36.3185 70.6627 39.7658 74.7669 44.1369 76.6619C46.8142 77.8254 49.7449 78.1641 52.6507 77.953C55.5913 77.737 58.6312 77.1528 61.4178 76.1758C64.0355 75.2578 66.231 73.785 67.7808 71.4826C69.1766 69.406 69.9415 66.971 70.781 64.6391C72.3655 60.2404 74.8293 56.3326 78.2716 53.117C81.6443 49.9702 85.772 47.6137 90.2376 46.3717C91.3452 46.0624 92.4728 45.8267 93.6103 45.65C94.2759 45.5469 94.6385 44.7271 94.4795 44.138C94.2858 43.4409 93.6152 43.1807 92.9496 43.2838Z" fill="black"/>
<path d="M107.864 45.159C116.582 46.4993 124.316 52.2235 128.071 60.1176C130.073 64.3248 130.704 69.3372 134.817 72.1993C136.908 73.6524 139.53 74.2857 141.994 74.7963C144.85 75.3903 147.766 75.6898 150.667 75.2479C155.296 74.541 159.439 71.4482 161.456 67.2704C163.517 62.9895 163.219 57.8986 160.785 53.8239C158.351 49.7541 153.866 47.1669 149.072 47.1129C144.503 47.0638 140.246 49.5627 138.323 53.7012C136.481 57.6679 136.928 62.4593 140.31 65.4883C143.464 68.3111 148.327 69.2145 152.018 66.8629C153.131 66.1511 154.104 65.2478 155.023 64.315C156.141 63.181 154.382 61.4431 153.265 62.5771C151.854 64.0106 150.245 65.4343 148.233 65.719C146.549 65.9596 144.83 65.5325 143.365 64.6832C141.944 63.8634 140.723 62.5968 140.146 61.0602C139.52 59.391 139.565 57.5844 140.102 55.9005C141.229 52.3315 144.468 49.8032 148.253 49.5872C152.316 49.3565 156.275 51.3398 158.446 54.7468C160.606 58.1391 161.048 62.5575 159.235 66.1952C157.417 69.8428 153.871 72.4153 149.773 72.916C147.244 73.2253 144.676 72.8817 142.203 72.3367C140.012 71.8556 137.628 71.3156 135.835 69.9067C134.211 68.6352 133.267 66.7402 132.542 64.8648C131.757 62.8373 131.121 60.7607 130.182 58.797C126.621 51.3643 119.562 45.6156 111.555 43.431C110.562 43.161 109.548 42.9499 108.53 42.7928C107.869 42.6897 107.194 42.9597 107 43.6519C106.831 44.2312 107.194 45.0559 107.864 45.159Z" fill="black"/>
<path d="M96.939 111.243C97.2222 111.238 96.8 111.179 96.944 111.223C97.0781 111.267 97.1029 111.272 96.9639 111.203C97.1129 111.272 97.252 111.356 97.3911 111.449C97.6692 111.631 97.9275 111.842 98.2206 111.994C98.911 112.352 99.7107 112.549 100.496 112.509C101.261 112.47 102.035 112.269 102.691 111.861C103.024 111.655 103.332 111.4 103.605 111.12C103.719 111.002 103.834 110.884 103.958 110.771C104.057 110.678 104.112 110.668 103.973 110.752C104.057 110.703 104.137 110.654 104.231 110.609C104.822 110.334 105.016 109.451 104.678 108.93C104.286 108.332 103.61 108.199 102.979 108.489C102.631 108.651 102.333 108.906 102.065 109.171C101.961 109.274 101.857 109.382 101.752 109.49C101.693 109.544 101.628 109.598 101.573 109.657C101.479 109.76 101.757 109.549 101.564 109.667C101.444 109.74 101.325 109.819 101.196 109.883C101.062 109.947 101.042 109.942 101.191 109.893C101.116 109.917 101.042 109.947 100.967 109.966C100.933 109.976 100.55 110.064 100.55 110.06C100.55 110.05 100.833 110.035 100.55 110.055C100.471 110.06 100.391 110.064 100.312 110.06C100.247 110.06 100.188 110.055 100.123 110.055C99.825 110.05 100.292 110.094 100.123 110.06C99.9839 110.03 99.8449 110.006 99.7058 109.966C99.7008 109.966 99.4127 109.873 99.5865 109.932C99.7554 109.991 99.5121 109.893 99.4773 109.878C99.3481 109.809 99.224 109.731 99.1047 109.647C98.4391 109.196 97.7934 108.764 96.944 108.783C96.2933 108.798 95.6724 109.338 95.7022 110.01C95.727 110.668 96.2436 111.262 96.939 111.243Z" fill="black"/>
</g>
<defs>
<clipPath id="clip0_501_31086">
<rect width="200" height="200" fill="white"/>
</clipPath>
</defs>
</svg>

<svg xmlns="http://www.w3.org/2000/svg" width="200" height="200" fill="none"><g fill="#000" clip-path="url(#a)"><path fill-rule="evenodd" d="M100.001 23.745c-43.53 0-78.78 34.068-78.78 76.044s35.25 76.045 78.78 76.045 78.78-34.068 78.78-76.045c0-41.976-35.249-76.044-78.78-76.044M19.234 99.789c0-43.104 36.183-78.008 80.767-78.008s80.767 34.904 80.767 78.008c0 43.105-36.183 78.009-80.767 78.009s-80.767-34.904-80.767-78.009" clip-rule="evenodd"/><path fill-rule="evenodd" d="M100.136 67.756c-17.9 0-32.41 14.342-32.41 32.033s14.51 32.033 32.41 32.033 32.411-14.341 32.411-32.033c0-17.691-14.511-32.033-32.411-32.033M65.738 99.79c0-18.776 15.4-33.996 34.398-33.996s34.398 15.22 34.398 33.996-15.4 33.997-34.398 33.997c-18.997 0-34.398-15.221-34.398-33.997" clip-rule="evenodd"/><path d="M98.572.868c-2.255 8.046-7.65 14.894-9.433 23.103-1.992 9.175 1.66 18.08 5.112 26.431 1.952 4.718 3.884 9.573 4.376 14.689.064.658.526 1.227 1.242 1.227.62 0 1.306-.565 1.241-1.227-.884-9.186-5.826-17.207-8.449-25.921-1.262-4.188-2.032-8.611-1.41-12.98.585-4.124 2.314-7.998 4.137-11.719 2.066-4.227 4.312-8.41 5.583-12.955.422-1.522-1.977-2.17-2.399-.648"/><path d="M98.761 1.59c1.828 8.07 7.068 14.825 9.323 22.744 2.534 8.886-.919 17.924-4.311 26.093-1.952 4.708-3.894 9.475-4.61 14.546-.094.658.16 1.316.87 1.512.581.157 1.435-.196 1.529-.86 1.297-9.17 6.453-17.226 8.708-26.146 1.128-4.467 1.575-9.111.72-13.662-.79-4.203-2.702-8.145-4.585-11.96-2.066-4.182-4.212-8.35-5.245-12.92-.353-1.542-2.747-.89-2.399.652M99.412 134.346c-2.255 8.046-7.65 14.894-9.433 23.103-1.992 9.175 1.659 18.081 5.111 26.431 1.952 4.718 3.885 9.573 4.376 14.689.065.658.527 1.227 1.242 1.227.621 0 1.306-.565 1.242-1.227-.884-9.186-5.827-17.207-8.45-25.921-1.261-4.188-2.03-8.611-1.41-12.98.586-4.124 2.315-7.998 4.138-11.719 2.066-4.227 4.311-8.409 5.583-12.955.422-1.522-1.972-2.17-2.4-.648"/><path d="M99.606 135.067c1.828 8.071 7.068 14.826 9.323 22.745 2.533 8.886-.919 17.924-4.311 26.093-1.953 4.708-3.895 9.475-4.61 14.546-.094.658.159 1.316.869 1.512.581.157 1.436-.196 1.53-.859 1.297-9.171 6.453-17.227 8.708-26.147 1.127-4.467 1.574-9.112.72-13.662-.79-4.203-2.702-8.145-4.585-11.959-2.066-4.183-4.212-8.351-5.245-12.922-.358-1.541-2.752-.888-2.4.653M133.57 101.341c8.141 2.229 15.07 7.56 23.376 9.322 9.283 1.969 18.294-1.639 26.743-5.051 4.773-1.93 9.686-3.839 14.862-4.325.665-.064 1.242-.521 1.242-1.228 0-.613-.572-1.29-1.242-1.227-9.294.874-17.41 5.759-26.227 8.351-4.237 1.247-8.713 2.008-13.133 1.394-4.173-.579-8.092-2.288-11.857-4.089-4.277-2.043-8.509-4.262-13.108-5.519-1.535-.422-2.196 1.949-.656 2.372"/><path d="M134.301 101.149c8.166-1.806 15.001-6.986 23.013-9.215 8.991-2.503 18.135.909 26.401 4.262 4.763 1.93 9.587 3.849 14.718 4.556.665.093 1.331-.158 1.53-.86.159-.574-.199-1.418-.87-1.512-9.278-1.28-17.43-6.377-26.455-8.605-4.52-1.115-9.219-1.557-13.824-.712-4.252.78-8.24 2.67-12.1 4.53-4.232 2.043-8.449 4.164-13.074 5.185-1.559.353-.899 2.72.661 2.371M66.43 98.646c-8.141-2.23-15.07-7.56-23.376-9.323-9.284-1.969-18.294 1.64-26.743 5.051-4.774 1.93-9.686 3.84-14.862 4.326-.666.063-1.242.52-1.242 1.227 0 .613.571 1.291 1.242 1.227 9.293-.874 17.41-5.758 26.227-8.35 4.237-1.248 8.712-2.008 13.133-1.395 4.172.58 8.092 2.288 11.857 4.09 4.277 2.042 8.509 4.26 13.108 5.518 1.54.417 2.196-1.954.656-2.371"/><path d="M65.699 98.832c-8.166 1.807-15.001 6.986-23.013 9.215-8.99 2.504-18.135-.908-26.4-4.261-4.764-1.93-9.588-3.85-14.719-4.556-.665-.094-1.33.157-1.53.859-.158.574.2 1.419.87 1.512 9.279 1.281 17.43 6.377 26.455 8.606 4.52 1.114 9.22 1.556 13.824.712 4.252-.781 8.24-2.671 12.1-4.532 4.232-2.042 8.45-4.163 13.074-5.184 1.56-.348.899-2.715-.661-2.37M86.21 91.635a11.13 11.13 0 0 0 5.915 3.373c.636.132 1.371-.182 1.53-.86.144-.613-.189-1.369-.869-1.511a10.6 10.6 0 0 1-1.654-.491c-.15-.06-.005-.01.06.024-.11-.064-.239-.103-.353-.157a9 9 0 0 1-.686-.358q-.317-.184-.62-.383-.163-.111-.318-.221l-.045-.035c.149.118-.045-.039-.08-.063a10 10 0 0 1-1.122-1.06c-.437-.482-1.322-.472-1.759 0-.477.52-.466 1.231 0 1.742M111.486 89.799c-.337.368-.7.717-1.087 1.031-.055.044-.11.098-.169.133.064-.035.174-.128.044-.035-.104.074-.208.152-.317.221q-.321.215-.656.407a8 8 0 0 1-.651.34l-.353.161c-.153.069.219-.083.06-.024-.069.024-.134.054-.199.078a10 10 0 0 1-1.49.427c-.636.133-1.063.909-.869 1.513.219.662.844.996 1.53.859a11.17 11.17 0 0 0 5.916-3.373c.432-.476.511-1.272 0-1.738-.472-.432-1.292-.51-1.759 0"/><path fill-rule="evenodd" d="M98.728 119.894a.7.7 0 0 0-.363-.099c-.334.003-.688.151-1.19.389q-1.41.67-2.826 1.34l-.644-1.328q1.417-.67 2.825-1.34h.001l.021-.01c.452-.214 1.092-.517 1.8-.524.733-.007 1.724.412 1.958 1.374l-1.45.344c-.006-.026-.032-.084-.132-.146" clip-rule="evenodd"/><path fill-rule="evenodd" d="M100.078 119.696c.234-.962 1.225-1.381 1.958-1.374.708.007 1.348.31 1.799.524l.021.01h.002q1.408.67 2.825 1.34l-.644 1.328c-.943-.446-1.888-.893-2.827-1.34-.501-.238-.855-.386-1.19-.389a.7.7 0 0 0-.362.099c-.1.062-.127.12-.133.146zM97.437 122.755c-1.51-.273-3.308-.599-4.71-1.69l.921-1.157c1.068.831 2.49 1.115 4.068 1.401.387.068.766.137 1.145.205.447.081.892.161 1.347.241l-.262 1.45q-.677-.12-1.36-.243-.572-.104-1.134-.204h-.003z" clip-rule="evenodd"/><path fill-rule="evenodd" d="M102.497 121.309c1.578-.286 3.001-.57 4.069-1.401l.921 1.157c-1.402 1.091-3.201 1.417-4.71 1.69l-.015.003q-.56.1-1.135.204c-.453.081-.909.164-1.359.243l-.262-1.45c.454-.08.9-.16 1.347-.241q.567-.103 1.144-.205M90.125 89.769c-1.357-.398-2.84-.257-4.443-.078h-.001l-4.525.501-.166-1.464 2.263-.25 2.262-.25c1.556-.174 3.341-.367 5.034.129.925.272 1.741.726 2.487 1.213.373.244.736.501 1.087.751l.111.08c.315.224.62.442.928.65l.003.002c1.388.943 2.862 1.594 4.23 1.323l.293 1.444c-2 .397-3.923-.572-5.366-1.553-.326-.22-.648-.45-.96-.672l-.111-.08a31 31 0 0 0-1.036-.716c-.69-.45-1.366-.817-2.09-1.03M110.123 88.357c1.693-.496 3.478-.303 5.034-.13l2.262.251h.003l2.26.25-.166 1.464-2.258-.25h-.005l-2.262-.25h-.001c-1.602-.18-3.086-.32-4.442.077-.725.213-1.401.58-2.091 1.03a31 31 0 0 0-1.147.796c-.312.223-.634.452-.96.672-1.443.981-3.365 1.95-5.366 1.553l.293-1.444c1.367.271 2.842-.38 4.23-1.323l.003-.002c.308-.208.613-.426.928-.65l.111-.08c.351-.25.714-.507 1.087-.751.746-.487 1.562-.94 2.486-1.213z" clip-rule="evenodd"/><path d="M92.95 43.284c-8.872 1.364-16.929 6.853-21.613 14.394-1.202 1.934-2.12 4-2.89 6.136-.756 2.087-1.421 4.232-2.613 6.127-1.237 1.964-3.08 3.2-5.276 3.942-2.523.854-5.25 1.429-7.907 1.62-2.534.187-5.166-.01-7.506-1.065a13.4 13.4 0 0 1-4.922-3.814c-2.747-3.408-3.418-7.924-1.992-12.018 1.43-4.12 4.917-7.163 9.234-8.037 4.088-.825 8.38.638 10.664 4.173 2.037 3.142 2.32 7.457-.367 10.32-2.528 2.694-6.72 3.686-9.915 1.688-1.033-.648-1.907-1.507-2.756-2.371-1.118-1.134-2.871.604-1.759 1.738 1.773 1.801 3.8 3.52 6.383 3.986 2.23.403 4.48.03 6.522-.928 1.962-.918 3.69-2.464 4.744-4.35 1.142-2.042 1.44-4.393 1.087-6.68-.715-4.64-4.286-8.622-8.88-9.824-4.834-1.262-10.268.314-13.76 3.82-3.581 3.593-5.151 8.959-4.098 13.892.989 4.63 4.436 8.734 8.807 10.629 2.677 1.163 5.608 1.502 8.514 1.291 2.94-.216 5.98-.8 8.767-1.777 2.617-.918 4.813-2.391 6.363-4.693 1.396-2.077 2.16-4.512 3-6.844 1.584-4.399 4.048-8.306 7.49-11.522 3.373-3.147 7.501-5.503 11.967-6.745a29 29 0 0 1 3.372-.722c.666-.103 1.028-.923.87-1.512-.194-.697-.865-.957-1.53-.854M107.864 45.159c8.718 1.34 16.452 7.065 20.207 14.959 2.002 4.207 2.633 9.22 6.746 12.081 2.091 1.453 4.713 2.087 7.177 2.597 2.856.594 5.772.894 8.673.452 4.629-.707 8.772-3.8 10.789-7.978 2.061-4.28 1.763-9.371-.671-13.446-2.434-4.07-6.919-6.657-11.713-6.711-4.569-.05-8.826 2.45-10.749 6.588-1.842 3.967-1.395 8.758 1.987 11.787 3.154 2.823 8.017 3.727 11.708 1.375 1.113-.712 2.086-1.615 3.005-2.548 1.118-1.134-.641-2.872-1.758-1.738-1.411 1.434-3.02 2.857-5.032 3.142-1.684.24-3.403-.186-4.868-1.036-1.421-.82-2.642-2.086-3.219-3.623-.626-1.669-.581-3.476-.044-5.16 1.127-3.568 4.366-6.097 8.151-6.313 4.063-.23 8.022 1.753 10.193 5.16 2.16 3.392 2.602 7.81.789 11.448-1.818 3.648-5.364 6.22-9.462 6.721-2.529.31-5.097-.034-7.57-.58-2.191-.48-4.575-1.02-6.368-2.43-1.624-1.27-2.568-3.166-3.293-5.041-.785-2.028-1.421-4.104-2.36-6.068-3.561-7.433-10.62-13.181-18.627-15.366a28 28 0 0 0-3.025-.638c-.661-.103-1.336.167-1.53.859-.169.58.194 1.404.864 1.507M96.939 111.243c.283-.005-.139-.064.005-.02.134.044.159.049.02-.02.149.069.288.153.427.246.278.182.536.393.83.545.69.358 1.49.555 2.275.515.765-.039 1.539-.24 2.195-.648.333-.206.641-.461.914-.741a8 8 0 0 1 .353-.349c.099-.093.154-.103.015-.019.084-.049.164-.098.258-.143.591-.275.785-1.158.447-1.679-.392-.598-1.068-.731-1.699-.441-.348.162-.646.417-.914.682q-.156.156-.313.319c-.059.054-.124.108-.179.167-.094.103.184-.108-.009.01-.12.073-.239.152-.368.216-.134.064-.154.059-.005.01-.075.024-.149.054-.224.073-.034.01-.417.098-.417.094 0-.01.283-.025 0-.005a2 2 0 0 1-.238.005c-.065 0-.124-.005-.189-.005-.298-.005.169.039 0 .005-.14-.03-.278-.054-.417-.094-.005 0-.293-.093-.12-.034.17.059-.074-.039-.109-.054a4 4 0 0 1-.372-.231c-.666-.451-1.312-.883-2.161-.864-.65.015-1.272.555-1.242 1.227.025.658.542 1.252 1.237 1.233"/></g><defs><clipPath id="a"><path fill="#fff" d="M0 0h200v200H0z"/></clipPath></defs></svg>
